X:1
T:Red Lion -- Hornpipe
R:hornpipe
B:Cole's 1000 Fiddle Tunes
M:2/4
L:1/16
K:Bb
uF2|BFdB fdbf|dBAc BAGF|GEDE CEcd|ecdB BAGF|
BFdB fdbf|dBAc BAGF|GEDE CEcd|ecAc B2:|
|:vFE|DB,FD BFdB|fbfd BAGF|GBAc Bdfa|bgf=e .f2((3fga)|
bfdB gecA|BGec BAGF|GEDE CEcd|ecAc B2:|
